X:3621
T:Lennox Waltz. CJF.213
O:england
M:3/8
L:1/16
Q:60
S: C.J.Fox MS, 1829/33, Beverley,E.Yorks.
R:Waltz
A:East Yorkshire
B:Kidson Coll.Mitchell Lib.M1805
K:D
(Ad).f2.f2 (Ad)|.f2.f2 ef|(gf)(ed)(cd)|e2A2 (Ad)|\
.f2.f2 (Ad)|.f2.f2 (ef)|
(gf).g.e(dc)|d4||(fg)|(af)(ba)(gf)|g2e2 ef|(ge)(ag)(fe)|\
.f2.d2 (Ad)|.f2.f2 (df)|
.a2.a2 (AB)|(cd).e.f.g.a|d4||A2|(A2d2).c2|(B2e2).d2|(c2a2).g2|\
(g2f2) A2|A2(d2c2)|B2(e2d2)|(dc)(ag)(fe)|{c}d4||


